web/public/connect-with-strava.svg

<?xml version="1.0" encoding="UTF-8" standalone="no"?>
<svg width="193px" height="48px" viewBox="0 0 193 48" version="1.1" xmlns="http://www.w3.org/2000/svg" xmlns:xlink="http://www.w3.org/1999/xlink">
    <!-- Generator: Sketch 39.1 (31720) - http://www.bohemiancoding.com/sketch -->
    <title>btn_strava_connectwith_orange</title>
    <desc>Created with Sketch.</desc>
    <defs></defs>
    <g id="Strava-Button_outlined" stroke="none" stroke-width="1" fill="none" fill-rule="evenodd">
        <g id="btn_strava_connectwith_orange">
            <rect id="button-bg" fill="#FC4C02" x="4" y="4" width="185" height="40" rx="2"></rect>
            <path d="M27,25.164 L28.736,25.514 C28.6239994,26.6153388 28.2226701,27.5066633 27.532,28.188 C26.8413299,28.8693367 25.9500055,29.21 24.858,29.21 C23.6166605,29.21 22.6016706,28.7760043 21.813,27.908 C21.0243294,27.0399957 20.63,25.7426753 20.63,24.016 C20.63,22.4106586 21.0429959,21.171671 21.869,20.299 C22.6950041,19.426329 23.6866609,18.99 24.844,18.99 C25.8613384,18.99 26.7199965,19.3096635 27.42,19.949 C28.1200035,20.5883365 28.5306661,21.4306614 28.652,22.476 L26.944,22.742 C26.7013321,21.2579926 26.0060057,20.516 24.858,20.516 C24.1393297,20.516 23.5396691,20.8053304 23.059,21.384 C22.5783309,21.9626696 22.338,22.8493274 22.338,24.044 C22.338,25.2666728 22.5736643,26.178997 23.045,26.781 C23.5163357,27.383003 24.120663,27.684 24.858,27.684 C26.0806728,27.684 26.7946656,26.8440084 27,25.164 L27,25.164 Z M33.51875,27.768 C34.0694194,27.768 34.5150816,27.5510022 34.85575,27.117 C35.1964184,26.6829978 35.36675,26.0740039 35.36675,25.29 C35.36675,24.5059961 35.1964184,23.8970022 34.85575,23.463 C34.5150816,23.0289978 34.0694194,22.812 33.51875,22.812 C32.9587472,22.812 32.5084184,23.0266645 32.16775,23.456 C31.8270816,23.8853355 31.65675,24.4966627 31.65675,25.29 C31.65675,26.0926707 31.8270816,26.7063312 32.16775,27.131 C32.5084184,27.5556688 32.9587472,27.768 33.51875,27.768 L33.51875,27.768 Z M33.51875,29.21 C32.5200783,29.21 31.6964199,28.8646701 31.04775,28.174 C30.3990801,27.4833299 30.07475,26.5220062 30.07475,25.29 C30.07475,24.0766606 30.4084133,23.1200035 31.07575,22.42 C31.7430867,21.7199965 32.5574119,21.37 33.51875,21.37 C34.4800881,21.37 35.2897467,21.7199965 35.94775,22.42 C36.6057533,23.1200035 36.93475,24.0766606 36.93475,25.29 C36.93475,26.5220062 36.6150865,27.4833299 35.97575,28.174 C35.3364135,28.8646701 34.5174217,29.21 33.51875,29.21 L33.51875,29.21 Z M38.7635,29 L38.7635,21.58 L40.3035,21.58 L40.3035,22.294 L40.3315,22.294 C40.5368344,22.0326654 40.8214982,21.8133342 41.1855,21.636 C41.5495018,21.4586658 41.9321647,21.37 42.3335,21.37 C43.1548374,21.37 43.8011643,21.6149976 44.2725,22.105 C44.7438357,22.5950024 44.9795,23.2739957 44.9795,24.142 L44.9795,29 L43.3975,29 L43.3975,24.562 C43.3975,23.4139943 42.9168381,22.84 41.9555,22.84 C41.4701642,22.84 41.0828348,22.9799986 40.7935,23.26 C40.5041652,23.5400014 40.3595,23.9179976 40.3595,24.394 L40.3595,29 L38.7635,29 Z M47.22825,29 L47.22825,21.58 L48.76825,21.58 L48.76825,22.294 L48.79625,22.294 C49.0015844,22.0326654 49.2862482,21.8133342 49.65025,21.636 C50.0142518,21.4586658 50.3969147,21.37 50.79825,21.37 C51.6195874,21.37 52.2659143,21.6149976 52.73725,22.105 C53.2085857,22.5950024 53.44425,23.2739957 53.44425,24.142 L53.44425,29 L51.86225,29 L51.86225,24.562 C51.86225,23.4139943 51.3815881,22.84 50.42025,22.84 C49.9349142,22.84 49.5475848,22.9799986 49.25825,23.26 C48.9689152,23.5400014 48.82425,23.9179976 48.82425,24.394 L48.82425,29 L47.22825,29 Z M60.621,26.536 L61.769,27.474 C61.0503297,28.6313391 60.0236733,29.21 58.689,29.21 C57.6623282,29.21 56.8246699,28.8530036 56.176,28.139 C55.5273301,27.4249964 55.203,26.4753393 55.203,25.29 C55.203,24.1046607 55.5249968,23.1550036 56.169,22.441 C56.8130032,21.7269964 57.6296617,21.37 58.619,21.37 C59.6083383,21.37 60.4179968,21.7246631 61.048,22.434 C61.6780031,23.1433369 61.993,24.0953274 61.993,25.29 L61.993,25.766 L56.813,25.766 C56.8316668,26.3820031 57.0019984,26.8743315 57.324,27.243 C57.6460016,27.6116685 58.0916638,27.796 58.661,27.796 C58.931668,27.796 59.1743323,27.758667 59.389,27.684 C59.6036677,27.609333 59.7926658,27.4973341 59.956,27.348 C60.1193342,27.1986659 60.2429996,27.0680006 60.327,26.956 C60.4110004,26.8439994 60.5089994,26.7040008 60.621,26.536 L60.621,26.536 Z M56.827,24.562 L60.439,24.562 C60.4109999,24.0393307 60.2430015,23.612335 59.935,23.281 C59.6269985,22.949665 59.1883362,22.784 58.619,22.784 C58.0869973,22.784 57.6623349,22.9613316 57.345,23.316 C57.0276651,23.6706684 56.8550001,24.0859976 56.827,24.562 L56.827,24.562 Z M68.32975,26.046 L69.91175,26.382 C69.7624159,27.2780045 69.4217527,27.9733309 68.88975,28.468 C68.3577473,28.9626691 67.6530877,29.21 66.77575,29.21 C65.767745,29.21 64.9417532,28.8646701 64.29775,28.174 C63.6537468,27.4833299 63.33175,26.5220062 63.33175,25.29 C63.33175,24.1046607 63.6560801,23.1550036 64.30475,22.441 C64.9534199,21.7269964 65.7724117,21.37 66.76175,21.37 C67.6110876,21.37 68.3110806,21.6243308 68.86175,22.133 C69.4124194,22.6416692 69.7344162,23.3019959 69.82775,24.114 L68.32975,24.366 C68.1710825,23.3299948 67.6530877,22.812 66.77575,22.812 C66.2064138,22.812 65.7537517,23.0289978 65.41775,23.463 C65.0817483,23.8970022 64.91375,24.5059961 64.91375,25.29 C64.91375,26.0740039 65.0770817,26.6829978 65.40375,27.117 C65.7304183,27.5510022 66.1877471,27.768 66.77575,27.768 C67.6437543,27.768 68.1617492,27.1940057 68.32975,26.046 L68.32975,26.046 Z M72.0205,26.522 L72.0205,22.952 L70.9005,22.952 L70.9005,21.58 L72.0625,21.58 L72.0625,19.76 L73.5745,19.76 L73.5745,21.58 L75.4365,21.58 L75.4365,22.952 L73.5885,22.952 L73.5885,26.354 C73.5885,26.7646687 73.6514994,27.0516658 73.7775,27.215 C73.9035006,27.3783342 74.162498,27.46 74.5545,27.46 L75.1425,27.46 L75.1425,29 L74.4285,29 C73.5324955,29 72.9071684,28.8016686 72.5525,28.405 C72.1978316,28.0083313 72.0205,27.380671 72.0205,26.522 L72.0205,26.522 Z M81.992,29 L80.354,21.58 L81.922,21.58 L82.972,26.746 L83,26.746 L84.764,21.58 L86.206,21.58 L87.858,26.732 L87.886,26.732 L89.076,21.58 L90.616,21.58 L88.838,29 L87.298,29 L85.492,23.428 L85.464,23.428 L83.518,29 L81.992,29 Z M92.40275,29 L92.40275,21.58 L93.99875,21.58 L93.99875,29 L92.40275,29 Z M92.37475,20.362 L92.37475,18.78 L94.02675,18.78 L94.02675,20.362 L92.37475,20.362 Z M96.6955,26.522 L96.6955,22.952 L95.5755,22.952 L95.5755,21.58 L96.7375,21.58 L96.7375,19.76 L98.2495,19.76 L98.2495,21.58 L100.1115,21.58 L100.1115,22.952 L98.2635,22.952 L98.2635,26.354 C98.2635,26.7646687 98.3264994,27.0516658 98.4525,27.215 C98.5785006,27.3783342 98.837498,27.46 99.2295,27.46 L99.8175,27.46 L99.8175,29 L99.1035,29 C98.2074955,29 97.5821684,28.8016686 97.2275,28.405 C96.8728316,28.0083313 96.6955,27.380671 96.6955,26.522 L96.6955,26.522 Z M101.87025,29 L101.87025,18.78 L103.46625,18.78 L103.46625,22.308 L103.49425,22.308 C103.662251,22.0559987 103.937581,21.8366676 104.32025,21.65 C104.702919,21.4633324 105.090248,21.37 105.48225,21.37 C106.275587,21.37 106.919581,21.6126642 107.41425,22.098 C107.908919,22.5833358 108.15625,23.2459958 108.15625,24.086 L108.15625,29 L106.57425,29 L106.57425,24.464 C106.57425,23.9786642 106.443585,23.5866682 106.18225,23.288 C105.920915,22.9893318 105.542919,22.84 105.04825,22.84 C104.572248,22.84 104.189585,22.9799986 103.90025,23.26 C103.610915,23.5400014 103.46625,23.8993311 103.46625,24.338 L103.46625,29 L101.87025,29 Z" id="Connect-with" fill="#FFFFFF"></path>
            <path d="M160.015559,18.7243818 L157.573637,23.6936411 L155.130184,18.7243818 L151.538762,18.7243818 L157.573637,31 L163.604197,18.7243818 L160.015559,18.7243818 Z M140.167341,23.0633572 C140.167341,22.6899778 140.038474,22.4112701 139.782411,22.2312505 C139.527323,22.049653 139.178854,21.959428 138.742573,21.959428 L137.108085,21.959428 L137.108085,24.220073 L138.726013,24.220073 C139.17454,24.220073 139.527323,24.1208112 139.782411,23.9228613 C140.038474,23.7244811 140.167341,23.4484988 140.167341,23.0966357 L140.167341,23.0633572 Z M149.175468,18 L155.208534,30.2756182 L151.617112,30.2756182 L149.175468,25.306072 L146.735216,30.2756182 L144.297747,30.2756182 L143.145603,30.2756182 L140.022749,30.2756182 L137.908281,26.9753059 L137.877804,26.9753059 L137.108085,26.9753059 L137.108085,30.2756182 L133.360798,30.2756182 L133.360798,18.7243818 L138.838458,18.7243818 C139.841696,18.7243818 140.666246,18.8428649 141.311553,19.0794006 C141.958668,19.3155061 142.477752,19.638107 142.87298,20.0451952 C143.215325,20.3961977 143.471249,20.7933884 143.642978,21.231747 C143.812619,21.6721138 143.898902,22.1909433 143.898902,22.7824979 L143.898902,22.8174977 C143.898902,23.6638052 143.701288,24.3792936 143.305086,24.9618113 C142.911389,25.5449028 142.372405,26.0083638 141.687715,26.3481777 L143.635324,29.2788401 L149.175468,18 Z M165.966934,18 L159.934565,30.2756182 L163.525987,30.2756182 L165.966934,25.306072 L168.409552,30.2756182 L172,30.2756182 L165.966934,18 Z M122.487587,21.9899811 L125.786345,21.9899811 L125.786345,30.2756182 L129.534327,30.2756182 L129.534327,21.9899811 L132.833921,21.9899811 L132.833921,18.7243818 L122.487587,18.7243818 L122.487587,21.9899811 Z M122.352597,25.0606428 C122.581523,25.4677311 122.696612,25.9636099 122.696612,26.5455539 L122.696612,26.5794062 C122.696612,27.1838705 122.579853,27.7295237 122.343829,28.212923 C122.109615,28.6976133 121.777847,29.1069967 121.351168,29.4430811 C120.923515,29.7780181 120.405405,30.036357 119.797395,30.2182414 C119.189663,30.400843 118.505112,30.4919286 117.748474,30.4919286 C116.606767,30.4919286 115.540905,30.3282614 114.553254,30.0046563 C113.565741,29.6791866 112.715028,29.1923446 112,28.5447042 L114.001188,26.0865396 C114.609059,26.5697955 115.250886,26.9167816 115.922216,27.1254896 C116.594521,27.334628 117.262511,27.4391972 117.924378,27.4391972 C118.266584,27.4391972 118.511235,27.3947302 118.660976,27.3078043 C118.811692,27.2194441 118.884892,27.0980922 118.884892,26.9447528 L118.884892,26.9119046 C118.884892,26.7453685 118.774256,26.6062298 118.556603,26.4980746 C118.338949,26.388198 117.928692,26.273301 117.331258,26.1525229 C116.701677,26.0195522 116.100764,25.8647784 115.530329,25.6893489 C114.959058,25.51478 114.457508,25.2881418 114.025541,25.0125898 C113.592878,24.7383288 113.248863,24.3904821 112.991966,23.9727791 C112.735903,23.554359 112.607871,23.0422712 112.607871,22.4378069 L112.607871,22.4045284 C112.607871,21.8538547 112.711549,21.341767 112.920435,20.8692692 C113.126816,20.3961977 113.431726,19.982798 113.832242,19.6317956 C114.232897,19.2795021 114.730132,19.0049543 115.323112,18.80557 C115.913588,18.6076201 116.594521,18.508932 117.364379,18.508932 C118.45209,18.508932 119.404811,18.6413289 120.221569,18.9062662 C121.038465,19.1683346 121.771724,19.5649516 122.423988,20.092818 L120.598705,22.7013097 C120.064869,22.3039755 119.501531,22.0153704 118.909246,21.8333425 C118.315431,21.6514581 117.759746,21.5603725 117.235513,21.5603725 C116.958575,21.5603725 116.753168,21.6044092 116.619849,21.6927694 C116.484024,21.7808428 116.419591,21.8968873 116.419591,22.0391817 L116.419591,22.0720299 C116.419591,22.2273776 116.51965,22.3593441 116.723526,22.469651 C116.927263,22.5790972 117.321656,22.6949983 117.907817,22.8160633 C118.623541,22.9471692 119.274136,23.1073939 119.862802,23.2932946 C120.448825,23.4822077 120.954827,23.7204648 121.375383,24.012656 C121.797052,24.3042735 122.123532,24.6521202 122.352597,25.0606428 L122.352597,25.0606428 Z" id="Strava-logo-Copy-6" fill="#FFFFFF"></path>
        </g>
    </g>
</svg>

<svg xmlns="http://www.w3.org/2000/svg" width="193" height="48"><g fill="none" fill-rule="evenodd"><rect width="185" height="40" x="4" y="4" fill="#FC4C02" rx="2"/><path fill="#FFF" d="m27 25.164 1.736.35q-.168 1.652-1.204 2.674t-2.674 1.022q-1.862 0-3.045-1.302t-1.183-3.892q0-2.408 1.239-3.717t2.975-1.309q1.526 0 2.576.959 1.05.96 1.232 2.527l-1.708.266q-.364-2.226-2.086-2.226-1.078 0-1.799.868t-.721 2.66q0 1.834.707 2.737t1.813.903q1.834 0 2.142-2.52m6.519 2.604q.825 0 1.337-.651.51-.651.51-1.827t-.51-1.827a1.62 1.62 0 0 0-1.337-.651q-.84 0-1.351.644-.51.644-.511 1.834 0 1.204.51 1.841.512.637 1.352.637m0 1.442q-1.499 0-2.471-1.036-.973-1.035-.973-2.884 0-1.82 1-2.87t2.444-1.05 2.429 1.05.987 2.87q0 1.848-.96 2.884-.959 1.035-2.456 1.036m5.245-.21v-7.42h1.54v.714h.027q.309-.391.854-.658a2.6 2.6 0 0 1 1.148-.266q1.233 0 1.94.735t.706 2.037V29h-1.581v-4.438q0-1.722-1.443-1.722-.727 0-1.161.42t-.434 1.134V29zm8.464 0v-7.42h1.54v.714h.028q.309-.391.854-.658a2.6 2.6 0 0 1 1.148-.266q1.233 0 1.94.735t.706 2.037V29h-1.582v-4.438q0-1.722-1.442-1.722-.727 0-1.162.42t-.434 1.134V29zm13.393-2.464 1.148.938q-1.078 1.736-3.08 1.736-1.54 0-2.513-1.071t-.973-2.849.966-2.849 2.45-1.071 2.429 1.064.945 2.856v.476h-5.18q.028.924.511 1.477t1.337.553q.405 0 .728-.112.322-.113.567-.336.245-.225.371-.392.126-.168.294-.42m-3.794-1.974h3.612q-.042-.784-.504-1.281t-1.316-.497q-.798 0-1.274.532t-.518 1.246m11.503 1.484 1.582.336q-.224 1.344-1.022 2.086t-2.114.742q-1.512 0-2.478-1.036-.966-1.035-.966-2.884 0-1.778.973-2.849.972-1.071 2.457-1.071 1.275 0 2.1.763t.966 1.981l-1.498.252q-.239-1.554-1.554-1.554-.855 0-1.358.651t-.504 1.827q0 1.176.49 1.827t1.372.651q1.302 0 1.554-1.722m3.69.476v-3.57H70.9V21.58h1.162v-1.82h1.513v1.82h1.861v1.372h-1.848v3.402q0 .616.19.861.189.245.776.245h.588V29h-.713q-1.345 0-1.877-.595-.531-.595-.532-1.883M81.992 29l-1.638-7.42h1.568l1.05 5.166H83l1.764-5.166h1.442l1.652 5.152h.028l1.19-5.152h1.54L88.838 29h-1.54l-1.806-5.572h-.028L83.518 29zm10.41 0v-7.42H94V29zm-.027-8.638V18.78h1.652v1.582zm4.32 6.16v-3.57h-1.12V21.58h1.162v-1.82h1.513v1.82h1.862v1.372h-1.849v3.402q0 .616.19.861.189.245.776.245h.588V29h-.713q-1.345 0-1.876-.595-.532-.595-.532-1.883M101.87 29V18.78h1.596v3.528h.028q.253-.378.826-.658.574-.28 1.162-.28 1.191 0 1.932.728.742.728.742 1.988V29h-1.582v-4.536q0-.727-.392-1.176t-1.134-.448q-.714 0-1.148.42-.435.42-.434 1.078V29zM160.016 18.724l-2.442 4.97-2.444-4.97h-3.591L157.574 31l6.03-12.276zm-19.849 4.34q0-.562-.385-.833-.383-.272-1.04-.272h-1.634v2.261h1.618q.673 0 1.056-.297.384-.299.385-.826zM149.175 18l6.034 12.276h-3.592l-2.442-4.97-2.44 4.97h-6.712l-2.115-3.3h-.8v3.3h-3.747V18.724h5.477q1.505 0 2.474.355.97.356 1.561.966.513.527.77 1.187.255.662.256 1.55v.035q0 1.27-.594 2.145-.591.875-1.617 1.386l1.947 2.93zm16.792 0-6.032 12.276h3.591l2.44-4.97 2.444 4.97H172zm-43.48 3.99h3.3v8.286h3.747V21.99h3.3v-3.266h-10.346zm-.134 3.07q.344.613.344 1.486v.033q0 .908-.353 1.634a3.5 3.5 0 0 1-.993 1.23q-.641.502-1.554.775-.912.274-2.049.274-1.712-.001-3.195-.487-1.48-.49-2.553-1.46l2.001-2.458a5.9 5.9 0 0 0 1.921 1.038q1.01.315 2.002.314.513 0 .737-.131.225-.134.224-.363v-.033q0-.251-.328-.414-.328-.165-1.226-.345a21 21 0 0 1-1.8-.464 6 6 0 0 1-1.505-.676 3.2 3.2 0 0 1-1.034-1.04q-.384-.628-.384-1.535v-.033q0-.826.312-1.536.311-.71.912-1.237.6-.528 1.491-.826.886-.297 2.041-.297 1.632 0 2.858.397 1.224.394 2.202 1.187l-1.825 2.608a5.6 5.6 0 0 0-1.69-.868 5.7 5.7 0 0 0-1.673-.273q-.416 0-.616.133a.4.4 0 0 0-.2.346v.033q-.001.232.304.398.305.165 1.184.346 1.073.197 1.955.477c.586.19 1.092.427 1.512.72q.634.436.978 1.048"/></g></svg>
